svg/color/shopon.svg

<svg width="40" height="40" viewBox="0 0 40 40" fill="none" xmlns="http://www.w3.org/2000/svg">
<g clip-path="url(#clip0_819_3753)">
<path d="M20 0C31.0457 0 40 8.9543 40 20C40 31.0457 31.0457 40 20 40C8.95431 40 7.90517e-06 31.0457 0 20C6.58765e-07 8.95431 8.95431 1.97595e-06 20 0Z" fill="#E4F0DE"/>
<path d="M26 6C30.4183 6 34 9.58172 34 14V26C34 30.4183 30.4183 34 26 34H14C9.58172 34 6 30.4183 6 26V14C6 9.58172 9.58172 6 14 6H26Z" fill="#7AB55C"/>
<path d="M22.6419 28.9834L28.3546 27.7476C28.3546 27.7476 26.2931 13.804 26.2765 13.7113C26.2622 13.6195 26.1862 13.5593 26.1094 13.5593C26.0326 13.5593 24.5823 13.4517 24.5823 13.4517C24.5823 13.4517 23.5729 12.4431 23.4431 12.3346C23.4075 12.3053 23.3837 12.2895 23.3473 12.276L22.6237 28.9834H22.6419ZM19.7706 18.9498C19.7706 18.9498 19.1293 18.6141 18.3662 18.6141C17.2206 18.6141 17.1755 19.3314 17.1755 19.5174C17.1755 20.4928 19.7405 20.8751 19.7405 23.182C19.7405 24.9989 18.6005 26.1587 17.0441 26.1587C15.1805 26.1587 14.2416 24.9989 14.2416 24.9989L14.753 23.3475C14.753 23.3475 15.7386 24.1914 16.558 24.1914C17.0924 24.1914 17.3299 23.76 17.3299 23.4536C17.3299 22.1719 15.2288 22.1125 15.2288 20.0027C15.2019 18.2318 16.4725 16.5067 19.0502 16.5067C20.0453 16.5067 20.5345 16.7925 20.5345 16.7925L19.7864 18.9419L19.7706 18.9498ZM19.3431 10.6571C19.4507 10.6571 19.5576 10.6872 19.6637 10.764C18.8847 11.1321 18.0297 12.0615 17.6782 13.9243C17.1589 14.0929 16.6546 14.2449 16.1827 14.3819C16.5936 12.9687 17.5864 10.665 19.3431 10.665V10.6571ZM20.3208 12.9917V13.0986C19.7239 13.2823 19.0676 13.4818 18.4255 13.6813C18.7944 12.2745 19.4808 11.5873 20.0762 11.3292C20.2289 11.7258 20.3208 12.2602 20.3208 12.9917ZM20.7475 11.2231C21.2969 11.2817 21.6508 11.9095 21.8788 12.6125C21.6025 12.7028 21.2969 12.7954 20.962 12.9022V12.7028C20.962 12.1074 20.886 11.6174 20.7475 11.2215V11.2231ZM23.1162 12.2436C23.1003 12.2436 23.0687 12.2602 23.0544 12.2602C23.0402 12.2602 22.8256 12.3196 22.4892 12.4265C22.1543 11.4503 21.5582 10.5502 20.5037 10.5502H20.4126C20.107 10.1655 19.7381 10 19.4183 10C16.9594 10 15.7845 13.0693 15.4164 14.6281C14.4712 14.917 13.7832 15.1316 13.7064 15.1617C13.172 15.3303 13.157 15.3453 13.0952 15.8504C13.0359 16.2162 11.6465 26.9836 11.6465 26.9836L22.3823 29L23.1162 12.2436Z" fill="white"/>
</g>
<defs>
<clipPath id="clip0_819_3753">
<rect width="40" height="40" fill="white"/>
</clipPath>
</defs>
</svg>

<svg xmlns="http://www.w3.org/2000/svg" width="40" height="40" fill="none" viewBox="0 0 40 40"><g clip-path="url(#shopon_svg-a)"><path fill="#E4F0DE" d="M20 0c11.046 0 20 8.954 20 20s-8.954 20-20 20S0 31.046 0 20 8.954 0 20 0"/><path fill="#7AB55C" d="M26 6a8 8 0 0 1 8 8v12a8 8 0 0 1-8 8H14a8 8 0 0 1-8-8V14a8 8 0 0 1 8-8z"/><path fill="#fff" d="m22.642 28.983 5.713-1.235s-2.062-13.944-2.079-14.037a.175.175 0 0 0-.167-.152c-.076 0-1.527-.107-1.527-.107s-1.01-1.009-1.139-1.117a.3.3 0 0 0-.096-.059l-.723 16.707zM19.77 18.95s-.642-.336-1.405-.336c-1.145 0-1.19.717-1.19.903 0 .976 2.565 1.358 2.565 3.665 0 1.817-1.14 2.977-2.697 2.977-1.864 0-2.802-1.16-2.802-1.16l.511-1.651s.986.843 1.805.843a.747.747 0 0 0 .772-.737c0-1.282-2.101-1.341-2.101-3.451-.027-1.771 1.244-3.496 3.821-3.496.995 0 1.485.285 1.485.285l-.749 2.15zm-.428-8.293c.108 0 .215.03.32.107-.778.368-1.633 1.298-1.985 3.16-.52.169-1.023.32-1.495.458.41-1.413 1.403-3.717 3.16-3.717zm.978 2.335v.107c-.597.183-1.253.383-1.896.582.37-1.406 1.056-2.094 1.651-2.352.153.397.245.931.245 1.663m.426-1.769c.55.059.904.686 1.132 1.39-.277.09-.582.182-.917.29v-.2c0-.596-.076-1.086-.215-1.481zm2.37 1.02c-.017 0-.048.017-.063.017s-.228.06-.565.167c-.335-.977-.93-1.877-1.985-1.877h-.091c-.306-.385-.675-.55-.995-.55-2.459 0-3.633 3.07-4.002 4.628a80 80 0 0 0-1.71.534c-.534.168-.549.183-.61.688-.06.366-1.45 11.134-1.45 11.134L22.383 29z"/></g><defs><clipPath id="shopon_svg-a"><path fill="#fff" d="M0 0h40v40H0z"/></clipPath></defs></svg>
